icons/outline/buildings.svg

<!--
tags: [flat, office, city, urban, scyscraper, architecture, construction]
category: Buildings
unicode: "ff40"
version: "3.9"
-->
<svg
  xmlns="http://www.w3.org/2000/svg"
  width="24"
  height="24"
  viewBox="0 0 24 24"
  fill="none"
  stroke="currentColor"
  stroke-width="2"
  stroke-linecap="round"
  stroke-linejoin="round"
>
  <path d="M4 21v-15c0 -1 1 -2 2 -2h5c1 0 2 1 2 2v15m3 -13h2c1 0 2 1 2 2v11m-17 0h18m-11 -9v0m0 4v0m0 -8v0m-3 4v0m0 4v0m0 -8v0m10 4v0m0 4v0" />
</svg>

<!--
tags: [flat, office, city, urban, scyscraper, architecture, construction]
category: Buildings
unicode: "ff40"
version: "3.9"
-->
<svg
  xmlns="http://www.w3.org/2000/svg"
  width="24"
  height="24"
  viewBox="0 0 24 24"
  fill="none"
  stroke="currentColor"
  stroke-width="2"
  stroke-linecap="round"
  stroke-linejoin="round"
>
    <path d="M4 21v-15c0 -1 1 -2 2 -2h5c1 0 2 1 2 2v15M16 8h2c1 0 2 1 2 2v11M3 21h18M10 12v0M10 16v0M10 8v0M7 12v0M7 16v0M7 8v0M17 12v0M17 16v0" />
</svg>
